X:726
T:Vaqueirada (CT 156)
R:Vaqueirada
C:Tradicional
S:Msica Tradicional Asturiana, (C) Tello & Tito. Asturies, 2001.
S:http://pagina.de/MusTradAst <telloytito@asturies.org>
N:Cancin de Baille de Panderu.
N:Es propia de los vaqueiros que habitan las braas de Somiedu.
A:Asturies
O:Somiedu
Z:Cancioneru de Torner 156
M:6/8
L:1/8
Q:3/8=88
K:G
|GGG GAA|G F2-F3|BBc cBc|c B2-B2 z|
GGF GAA|(GF)B Bcc|A2 G A G2|{A}G6-|G2 z4||
W:La fiesta de San Tsurienzu
W:non falt quien la fayeri;
W:fitula Mingu d'Antn,
W:muitos anos viva yeli.
W:Ei!
W:
